public/chain.svg

<svg width="50" height="125" viewBox="0 0 50 125" fill="none" xmlns="http://www.w3.org/2000/svg">
<path d="M23.2659 10.2267C21.934 10.7335 20.7568 11.8464 19.9159 13.394C19.075 14.9415 18.6171 16.8377 18.6127 18.7901V25.3773C18.6171 27.3297 19.075 29.2259 19.9159 30.7734C20.7568 32.321 21.934 33.4339 23.2659 33.9407V36.5756C21.934 37.0824 20.7568 38.1954 19.9159 39.7429C19.075 41.2905 18.6171 43.1866 18.6127 45.139V51.7263C18.6171 53.6787 19.075 55.5748 19.9159 57.1224C20.7568 58.6699 21.934 59.7829 23.2659 60.2897L23.2659 68.1944L26.5464 68.1944L26.5464 60.2897C27.8825 59.7936 29.0644 58.6834 29.9065 57.1335C30.7487 55.5836 31.2035 53.6817 31.1995 51.7263V45.139C31.1952 43.1866 30.7372 41.2905 29.8963 39.7429C29.0554 38.1954 27.8783 37.0824 26.5464 36.5756V33.9407C27.8825 33.4446 29.0644 32.3345 29.9065 30.7846C30.7487 29.2347 31.2035 27.3327 31.1995 25.3773V18.7901C31.1952 16.8377 30.7372 14.9415 29.8963 13.394C29.0554 11.8464 27.8783 10.7335 26.5464 10.2267L26.5464 2.32199L23.2659 2.32199L23.2659 10.2267ZM27.919 45.139L27.919 51.7263C27.9168 52.4339 27.7902 53.1296 27.5505 53.7506C27.3109 54.3716 26.9658 54.8984 26.5464 55.2834L26.5464 51.7263L23.2659 51.7263L23.2659 55.2834C22.8465 54.8984 22.5013 54.3716 22.2617 53.7506C22.0221 53.1296 21.8954 52.4339 21.8932 51.7263L21.8932 45.139C21.8924 44.4306 22.0178 43.7333 22.2577 43.1116C22.4976 42.4899 22.8444 41.9638 23.2659 41.5819V45.139H26.5464V41.5819C26.9658 41.9669 27.3109 42.4937 27.5505 43.1147C27.7902 43.7357 27.9168 44.4314 27.919 45.139ZM27.919 18.7901L27.919 25.3773C27.9168 26.0849 27.7902 26.7807 27.5505 27.4017C27.3109 28.0227 26.9658 28.5494 26.5464 28.9344V25.3773H23.2659V28.9344C22.8465 28.5494 22.5013 28.0227 22.2617 27.4017C22.0221 26.7807 21.8954 26.085 21.8932 25.3773L21.8932 18.7901C21.8924 18.0816 22.0178 17.3844 22.2577 16.7626C22.4976 16.1409 22.8444 15.6148 23.2659 15.233L23.2659 18.7901L26.5464 18.7901L26.5464 15.233C26.9658 15.618 27.3109 16.1447 27.5505 16.7657C27.7902 17.3867 27.9168 18.0825 27.919 18.7901Z" fill="black"/>
<path d="M23.4536 64.7103C22.1217 65.2171 20.9446 66.3301 20.1037 67.8776C19.2628 69.4252 18.8048 71.3213 18.8004 73.2737V79.861C18.8048 81.8134 19.2628 83.7095 20.1037 85.2571C20.9446 86.8046 22.1217 87.9176 23.4536 88.4244V91.0593C22.1217 91.5661 20.9446 92.679 20.1037 94.2266C19.2628 95.7741 18.8048 97.6703 18.8004 99.6227V106.21C18.8048 108.162 19.2628 110.058 20.1037 111.606C20.9446 113.154 22.1217 114.267 23.4536 114.773L23.4536 122.678L26.7341 122.678L26.7341 114.773C28.0702 114.277 29.2521 113.167 30.0943 111.617C30.9365 110.067 31.3913 108.165 31.3873 106.21V99.6227C31.3829 97.6703 30.925 95.7741 30.0841 94.2266C29.2432 92.679 28.066 91.5661 26.7341 91.0593V88.4244C28.0702 87.9283 29.2521 86.8181 30.0943 85.2682C30.9365 83.7183 31.3913 81.8164 31.3873 79.861V73.2737C31.3829 71.3213 30.925 69.4252 30.0841 67.8776C29.2432 66.3301 28.066 65.2171 26.7341 64.7103L26.7341 56.8056L23.4536 56.8056L23.4536 64.7103ZM28.1068 99.6227L28.1068 106.21C28.1046 106.918 27.9779 107.613 27.7383 108.234C27.4986 108.855 27.1535 109.382 26.7341 109.767L26.7341 106.21L23.4536 106.21L23.4536 109.767C23.0342 109.382 22.6891 108.855 22.4494 108.234C22.2098 107.613 22.0831 106.918 22.0809 106.21L22.0809 99.6227C22.0802 98.9142 22.2055 98.217 22.4454 97.5952C22.6854 96.9735 23.0321 96.4474 23.4536 96.0656V99.6227H26.7341V96.0656C27.1535 96.4506 27.4986 96.9773 27.7383 97.5983C27.9779 98.2193 28.1046 98.9151 28.1068 99.6227ZM28.1068 73.2737L28.1068 79.861C28.1046 80.5686 27.9779 81.2643 27.7383 81.8853C27.4986 82.5063 27.1535 83.0331 26.7341 83.4181V79.861H23.4536V83.4181C23.0342 83.0331 22.6891 82.5063 22.4494 81.8853C22.2098 81.2643 22.0831 80.5686 22.0809 79.861L22.0809 73.2737C22.0802 72.5653 22.2055 71.868 22.4454 71.2463C22.6854 70.6246 23.0321 70.0985 23.4536 69.7166L23.4536 73.2737L26.7341 73.2737L26.7341 69.7166C27.1535 70.1016 27.4986 70.6284 27.7383 71.2494C27.9779 71.8704 28.1046 72.5661 28.1068 73.2737Z" fill="black"/>
</svg>

<svg xmlns="http://www.w3.org/2000/svg" width="50" height="125" fill="#000" xmlns:v="https://vecta.io/nano"><path d="M23.266 10.227c-1.332.507-2.509 1.62-3.35 3.167s-1.299 3.444-1.303 5.396v6.587c.004 1.952.462 3.849 1.303 5.396s2.018 2.661 3.35 3.167v2.635c-1.332.507-2.509 1.62-3.35 3.167s-1.299 3.444-1.303 5.396v6.587c.004 1.952.462 3.849 1.303 5.396s2.018 2.66 3.35 3.167v7.905h3.281V60.29c1.336-.496 2.518-1.606 3.36-3.156s1.297-3.452 1.293-5.407v-6.587c-.004-1.952-.462-3.849-1.303-5.396s-2.018-2.66-3.35-3.167v-2.635c1.336-.496 2.518-1.606 3.36-3.156s1.297-3.452 1.293-5.407V18.79c-.004-1.952-.462-3.849-1.303-5.396s-2.018-2.661-3.35-3.167V2.322h-3.28v7.905zm4.653 34.912v6.587a5.71 5.71 0 0 1-.369 2.024c-.24.621-.585 1.148-1.004 1.533v-3.557h-3.28v3.557c-.419-.385-.765-.912-1.004-1.533a5.71 5.71 0 0 1-.369-2.024v-6.587c-.001-.708.125-1.406.364-2.027s.587-1.148 1.008-1.53v3.557h3.281v-3.557c.419.385.765.912 1.004 1.533a5.71 5.71 0 0 1 .369 2.024zm0-26.349v6.587a5.71 5.71 0 0 1-.369 2.024c-.24.621-.585 1.148-1.004 1.533v-3.557h-3.28v3.557c-.419-.385-.765-.912-1.004-1.533s-.366-1.317-.369-2.024V18.79c-.001-.708.125-1.406.364-2.027s.587-1.148 1.008-1.53v3.557h3.281v-3.557c.419.385.765.912 1.004 1.533a5.71 5.71 0 0 1 .369 2.024z"/><path d="M23.454 64.71c-1.332.507-2.509 1.62-3.35 3.167s-1.299 3.444-1.303 5.396v6.587c.004 1.952.462 3.849 1.303 5.396s2.018 2.66 3.35 3.167v2.635c-1.332.507-2.509 1.62-3.35 3.167s-1.299 3.444-1.303 5.396v6.587c.004 1.952.462 3.848 1.303 5.396s2.018 2.661 3.35 3.167v7.905h3.281v-7.905c1.336-.496 2.518-1.606 3.36-3.156s1.297-3.452 1.293-5.407v-6.587c-.004-1.952-.462-3.849-1.303-5.396s-2.018-2.66-3.35-3.167v-2.635c1.336-.496 2.518-1.606 3.36-3.156s1.297-3.452 1.293-5.407v-6.587c-.004-1.952-.462-3.849-1.303-5.396s-2.018-2.66-3.35-3.167v-7.905h-3.28v7.905zm4.653 34.912v6.587c-.002.708-.129 1.403-.369 2.024s-.585 1.148-1.004 1.533v-3.557h-3.28v3.557c-.419-.385-.765-.912-1.004-1.533s-.366-1.316-.369-2.024v-6.587c-.001-.709.125-1.406.364-2.027s.587-1.148 1.008-1.53v3.557h3.281v-3.557c.419.385.764.912 1.004 1.533s.366 1.317.369 2.024zm0-26.349v6.587a5.71 5.71 0 0 1-.369 2.024c-.24.621-.585 1.148-1.004 1.533v-3.557h-3.28v3.557c-.419-.385-.765-.912-1.004-1.533a5.71 5.71 0 0 1-.369-2.024v-6.587c-.001-.708.125-1.406.364-2.027s.587-1.148 1.008-1.53v3.557h3.281v-3.557c.419.385.764.912 1.004 1.533a5.71 5.71 0 0 1 .369 2.024z"/></svg>
